public/assets/css/svgs/fixstern-logo-light.svg

<?xml version="1.0" encoding="UTF-8" standalone="no"?><!DOCTYPE svg PUBLIC "-//W3C//DTD SVG 1.1//EN" "http://www.w3.org/Graphics/SVG/1.1/DTD/svg11.dtd"><svg width="100%" height="100%" viewBox="0 0 1707 585" version="1.1" xmlns="http://www.w3.org/2000/svg" xmlns:xlink="http://www.w3.org/1999/xlink" xml:space="preserve" xmlns:serif="http://www.serif.com/" style="fill-rule:evenodd;clip-rule:evenodd;stroke-linejoin:round;stroke-miterlimit:2;"><path d="M209.879,579.66l39.571,-188.189l-32.669,0l6.442,-29.907l32.668,-0l5.522,-25.307c4.601,-21.779 15.337,-39.57 32.208,-53.374c16.871,-13.803 38.65,-20.705 65.337,-20.705c20.552,0 36.503,2.301 47.852,6.902l-5.981,28.527c-4.295,-1.533 -9.969,-2.76 -17.025,-3.681c-7.055,-0.92 -14.263,-1.38 -21.625,-1.38c-19.018,-0 -33.435,3.604 -43.251,10.813c-9.816,7.208 -16.411,18.174 -19.785,32.898l-5.522,25.307l120.091,-0l-46.012,218.096l-37.73,0l39.571,-188.189l-82.362,0l-39.57,188.189l-37.73,0Z" style="fill:#fff;fill-rule:nonzero;"/><path d="M402.209,579.66l106.288,-110.889l-57.515,-107.207l40.95,-0l42.331,81.441l76.84,-81.441l40.491,-0l-101.687,107.207l58.895,110.889l-40.95,0l-44.632,-85.122l-80.06,85.122l-40.951,0Z" style="fill:#fff;fill-rule:nonzero;"/><path d="M705.888,584.261c-12.884,0 -25.69,-0.997 -38.42,-2.991c-12.73,-1.993 -23.236,-4.371 -31.519,-7.131l6.902,-33.129c20.246,7.362 41.871,11.043 64.877,11.043c19.325,-0 33.589,-2.071 42.791,-6.212c9.202,-4.141 15.031,-11.886 17.485,-23.236c1.84,-8.282 0.92,-14.57 -2.761,-18.865c-3.681,-4.294 -9.663,-8.128 -17.945,-11.502c-8.282,-3.375 -19.018,-7.362 -32.208,-11.964c-11.656,-4.294 -21.856,-8.972 -30.598,-14.033c-8.742,-5.062 -15.031,-11.426 -18.865,-19.095c-3.834,-7.669 -4.371,-17.791 -1.61,-30.368c4.294,-19.325 13.573,-34.125 27.837,-44.401c14.264,-10.276 37.653,-15.414 70.168,-15.414c11.656,-0 22.699,0.843 33.129,2.53c10.429,1.687 19.325,3.758 26.686,6.212l-6.901,33.128c-17.792,-6.441 -35.736,-9.662 -53.834,-9.662c-18.098,-0 -31.902,1.917 -41.411,5.751c-9.509,3.835 -15.491,10.967 -17.945,21.396c-1.533,7.055 -0.843,12.653 2.071,16.794c2.914,4.141 8.129,7.669 15.644,10.583c7.515,2.914 17.255,6.518 29.218,10.813c23.619,7.668 40.03,16.181 49.232,25.536c9.203,9.356 11.81,23.39 7.822,42.101c-4.601,21.472 -14.417,37.193 -29.447,47.162c-15.031,9.97 -38.497,14.954 -70.398,14.954Z" style="fill:#fff;fill-rule:nonzero;"/><path d="M920.303,584.261c-20.245,0 -34.816,-5.751 -43.711,-17.254c-8.896,-11.503 -11.197,-27.531 -6.902,-48.083l26.687,-127.453l-33.129,0l6.442,-29.907l33.128,-0l11.503,-53.834l40.031,-11.503l-13.804,65.337l60.276,-0l-8.743,29.907l-57.975,0l-26.686,125.613c-2.761,13.19 -2.071,22.622 2.07,28.297c4.141,5.675 12.96,8.512 26.457,8.512c4.294,0 9.202,-0.383 14.724,-1.15c5.521,-0.767 11.043,-1.917 16.564,-3.451l-6.442,28.528c-12.269,4.294 -25.766,6.441 -40.49,6.441Z" style="fill:#fff;fill-rule:nonzero;"/><path d="M1110.79,584.261c-37.73,0 -64.57,-9.355 -80.521,-28.067c-15.95,-18.711 -19.785,-47.546 -11.503,-86.502c7.669,-34.969 21.703,-62.5 42.101,-82.592c20.399,-20.091 49.156,-30.137 86.272,-30.137c21.473,-0 38.42,3.911 50.844,11.733c12.423,7.822 20.628,18.558 24.616,32.208c3.988,13.65 4.141,29.064 0.46,46.242l-8.742,40.95l-161.502,0c-2.147,16.565 -1.61,29.601 1.611,39.111c3.22,9.509 10.429,16.334 21.625,20.475c11.196,4.141 27.377,6.211 48.543,6.211c22.392,0 43.864,-3.834 64.416,-11.503l-6.441,29.448c-10.43,3.988 -21.779,7.055 -34.049,9.202c-12.27,2.148 -24.847,3.221 -37.73,3.221Zm-52.453,-123.312l127.913,0l4.141,-17.944c3.681,-17.791 2.3,-31.518 -4.141,-41.181c-6.442,-9.662 -21.319,-14.494 -44.632,-14.494c-24.846,0 -43.635,6.135 -56.364,18.405c-12.73,12.27 -21.703,30.675 -26.917,55.214Z" style="fill:#fff;fill-rule:nonzero;"/><path d="M1250.67,579.66l46.012,-218.096l34.049,-0l-3.221,27.607c12.577,-7.055 26.687,-13.497 42.331,-19.325c15.644,-5.828 30.828,-10.123 45.552,-12.883l-5.982,29.447c-9.202,1.841 -19.171,4.371 -29.908,7.592c-10.736,3.221 -21.088,6.825 -31.058,10.813c-9.969,3.988 -18.481,8.129 -25.536,12.423l-34.509,162.422l-37.73,0Z" style="fill:#fff;fill-rule:nonzero;"/><path d="M1410.33,579.66l46.012,-218.096l34.049,-0l-2.761,24.846c12.27,-8.589 25.92,-15.644 40.951,-21.165c15.031,-5.522 31.595,-8.282 49.693,-8.282c52.76,-0 73.465,26.686 62.116,80.06l-29.908,142.637l-37.73,0l29.908,-141.256c3.988,-19.019 3.144,-32.285 -2.531,-39.801c-5.674,-7.515 -19.401,-11.273 -41.18,-11.273c-12.577,0 -25.844,2.454 -39.8,7.362c-13.957,4.908 -25.997,11.657 -36.12,20.246l-34.969,164.722l-37.73,0Z" style="fill:#fff;fill-rule:nonzero;"/><path d="M96.031,162.18l-38.022,-131.342l81.11,64.692l115.74,-95.53l-34.381,132.684l93.541,65.062l-110.3,34.288l-11.895,156.68l-85.17,-137.221l-106.654,46.646l96.031,-135.959Z" style="fill:#fff;"/><g id="Ebene1"><path id="_---" serif:id="(®)" d="M1679.12,381.071c-3.833,0 -7.416,-0.722 -10.75,-2.166c-3.333,-1.445 -6.264,-3.431 -8.791,-5.959c-2.528,-2.527 -4.514,-5.458 -5.959,-8.791c-1.444,-3.334 -2.166,-6.917 -2.166,-10.75c-0,-3.834 0.722,-7.417 2.166,-10.75c1.445,-3.334 3.431,-6.264 5.959,-8.792c2.527,-2.528 5.458,-4.514 8.791,-5.958c3.334,-1.445 6.917,-2.167 10.75,-2.167c3.834,0 7.417,0.722 10.75,2.167c3.334,1.444 6.264,3.43 8.792,5.958c2.528,2.528 4.514,5.458 5.958,8.792c1.445,3.333 2.167,6.916 2.167,10.75c0,3.833 -0.722,7.416 -2.167,10.75c-1.444,3.333 -3.43,6.264 -5.958,8.791c-2.528,2.528 -5.458,4.514 -8.792,5.959c-3.333,1.444 -6.916,2.166 -10.75,2.166Zm0,-3.583c4.5,0 8.556,-1.056 12.167,-3.167c3.611,-2.111 6.486,-4.986 8.625,-8.625c2.139,-3.639 3.208,-7.736 3.208,-12.291c0,-4.556 -1.069,-8.639 -3.208,-12.25c-2.139,-3.611 -5.014,-6.473 -8.625,-8.584c-3.611,-2.111 -7.667,-3.166 -12.167,-3.166c-4.5,-0 -8.569,1.055 -12.208,3.166c-3.639,2.111 -6.514,4.973 -8.625,8.584c-2.111,3.611 -3.167,7.694 -3.167,12.25c0,4.555 1.056,8.652 3.167,12.291c2.111,3.639 4.986,6.514 8.625,8.625c3.639,2.111 7.708,3.167 12.208,3.167Zm-12.916,-5.583l-0,-37.084l15.666,0c3.889,0 6.806,0.973 8.75,2.917c1.945,1.944 2.917,4.611 2.917,8c0,2.889 -0.736,5.236 -2.208,7.042c-1.473,1.805 -3.598,2.958 -6.375,3.458c0.889,0.444 1.555,0.986 2,1.625c0.444,0.639 0.889,1.458 1.333,2.458l4.917,11.584l-3.667,-0l-5,-11.417c-0.556,-1.389 -1.25,-2.292 -2.083,-2.708c-0.834,-0.417 -2.445,-0.625 -4.834,-0.625l-7.666,-0l-0,14.75l-3.75,-0Zm3.75,-18l10.416,-0c3,-0 5.334,-0.556 7,-1.667c1.667,-1.111 2.5,-3.278 2.5,-6.5c0,-2.944 -0.666,-4.958 -2,-6.042c-1.333,-1.083 -3.416,-1.625 -6.25,-1.625l-11.666,0l-0,15.834Z" style="fill:#fff;fill-rule:nonzero;"/></g></svg>

<?xml version="1.0" encoding="UTF-8" standalone="no"?>
<!DOCTYPE svg PUBLIC "-//W3C//DTD SVG 1.1//EN" "http://www.w3.org/Graphics/SVG/1.1/DTD/svg11.dtd">
<svg width="100%" height="100%" viewBox="0 0 1707 585" version="1.1" xmlns="http://www.w3.org/2000/svg" xmlns:xlink="http://www.w3.org/1999/xlink" xml:space="preserve" xmlns:serif="http://www.serif.com/" style="fill-rule:evenodd;clip-rule:evenodd;stroke-linejoin:round;stroke-miterlimit:2;">
    <path d="M209.879,579.66L249.45,391.471L216.781,391.471L223.223,361.564L255.891,361.564L261.413,336.257C266.014,314.478 276.75,296.687 293.621,282.883C310.492,269.08 332.271,262.178 358.958,262.178C379.51,262.178 395.461,264.479 406.81,269.08L400.829,297.607C396.534,296.074 390.86,294.847 383.804,293.926C376.749,293.006 369.541,292.546 362.179,292.546C343.161,292.546 328.744,296.15 318.928,303.359C309.112,310.567 302.517,321.533 299.143,336.257L293.621,361.564L413.712,361.564L367.7,579.66L329.97,579.66L369.541,391.471L287.179,391.471L247.609,579.66L209.879,579.66Z" style="fill:white;fill-rule:nonzero;"/>
    <path d="M402.209,579.66L508.497,468.771L450.982,361.564L491.932,361.564L534.263,443.005L611.103,361.564L651.594,361.564L549.907,468.771L608.802,579.66L567.852,579.66L523.22,494.538L443.16,579.66L402.209,579.66Z" style="fill:white;fill-rule:nonzero;"/>
    <path d="M705.888,584.261C693.004,584.261 680.198,583.264 667.468,581.27C654.738,579.277 644.232,576.899 635.949,574.139L642.851,541.01C663.097,548.372 684.722,552.053 707.728,552.053C727.053,552.053 741.317,549.982 750.519,545.841C759.721,541.7 765.55,533.955 768.004,522.605C769.844,514.323 768.924,508.035 765.243,503.74C761.562,499.446 755.58,495.612 747.298,492.238C739.016,488.863 728.28,484.876 715.09,480.274C703.434,475.98 693.234,471.302 684.492,466.241C675.75,461.179 669.461,454.815 665.627,447.146C661.793,439.477 661.256,429.355 664.017,416.778C668.311,397.453 677.59,382.653 691.854,372.377C706.118,362.101 729.507,356.963 762.022,356.963C773.678,356.963 784.721,357.806 795.151,359.493C805.58,361.18 814.476,363.251 821.837,365.705L814.936,398.833C797.144,392.392 779.2,389.171 761.102,389.171C743.004,389.171 729.2,391.088 719.691,394.922C710.182,398.757 704.2,405.889 701.746,416.318C700.213,423.373 700.903,428.971 703.817,433.112C706.731,437.253 711.946,440.781 719.461,443.695C726.976,446.609 736.716,450.213 748.679,454.508C772.298,462.176 788.709,470.689 797.911,480.044C807.114,489.4 809.721,503.434 805.733,522.145C801.132,543.617 791.316,559.338 776.286,569.307C761.255,579.277 737.789,584.261 705.888,584.261Z" style="fill:white;fill-rule:nonzero;"/>
    <path d="M920.303,584.261C900.058,584.261 885.487,578.51 876.592,567.007C867.696,555.504 865.395,539.476 869.69,518.924L896.377,391.471L863.248,391.471L869.69,361.564L902.818,361.564L914.321,307.73L954.352,296.227L940.548,361.564L1000.82,361.564L992.081,391.471L934.106,391.471L907.42,517.084C904.659,530.274 905.349,539.706 909.49,545.381C913.631,551.056 922.45,553.893 935.947,553.893C940.241,553.893 945.149,553.51 950.671,552.743C956.192,551.976 961.714,550.826 967.235,549.292L960.793,577.82C948.524,582.114 935.027,584.261 920.303,584.261Z" style="fill:white;fill-rule:nonzero;"/>
    <path d="M1110.79,584.261C1073.06,584.261 1046.22,574.906 1030.27,556.194C1014.32,537.483 1010.48,508.648 1018.77,469.692C1026.43,434.723 1040.47,407.192 1060.87,387.1C1081.27,367.009 1110.02,356.963 1147.14,356.963C1168.61,356.963 1185.56,360.874 1197.98,368.696C1210.41,376.518 1218.61,387.254 1222.6,400.904C1226.59,414.554 1226.74,429.968 1223.06,447.146L1214.32,488.096L1052.82,488.096C1050.67,504.661 1051.2,517.697 1054.43,527.207C1057.65,536.716 1064.86,543.541 1076.05,547.682C1087.25,551.823 1103.43,553.893 1124.59,553.893C1146.99,553.893 1168.46,550.059 1189.01,542.39L1182.57,571.838C1172.14,575.826 1160.79,578.893 1148.52,581.04C1136.25,583.188 1123.67,584.261 1110.79,584.261ZM1058.34,460.949L1186.25,460.949L1190.39,443.005C1194.07,425.214 1192.69,411.487 1186.25,401.824C1179.81,392.162 1164.93,387.33 1141.62,387.33C1116.77,387.33 1097.98,393.465 1085.25,405.735C1072.52,418.005 1063.55,436.41 1058.34,460.949Z" style="fill:white;fill-rule:nonzero;"/>
    <path d="M1250.67,579.66L1296.68,361.564L1330.73,361.564L1327.51,389.171C1340.09,382.116 1354.2,375.674 1369.84,369.846C1385.49,364.018 1400.67,359.723 1415.39,356.963L1409.41,386.41C1400.21,388.251 1390.24,390.781 1379.5,394.002C1368.77,397.223 1358.41,400.827 1348.44,404.815C1338.48,408.803 1329.96,412.944 1322.91,417.238L1288.4,579.66L1250.67,579.66Z" style="fill:white;fill-rule:nonzero;"/>
    <path d="M1410.33,579.66L1456.34,361.564L1490.39,361.564L1487.63,386.41C1499.9,377.821 1513.55,370.766 1528.58,365.245C1543.61,359.723 1560.18,356.963 1578.27,356.963C1631.03,356.963 1651.74,383.649 1640.39,437.023L1610.48,579.66L1572.75,579.66L1602.66,438.404C1606.65,419.385 1605.8,406.119 1600.13,398.603C1594.45,391.088 1580.73,387.33 1558.95,387.33C1546.37,387.33 1533.11,389.784 1519.15,394.692C1505.19,399.6 1493.15,406.349 1483.03,414.938L1448.06,579.66L1410.33,579.66Z" style="fill:white;fill-rule:nonzero;"/>
    <path d="M96.031,162.18L58.009,30.838L139.119,95.53L254.859,-0L220.478,132.684L314.019,197.746L203.719,232.034L191.824,388.714L106.654,251.493L-0,298.139L96.031,162.18Z" style="fill:white;"/>
    <g id="Ebene1">
    </g>
</svg>
